X:150
T: SALVAI GLORIAI
N: E1258
O: Europa, Mitteleuropa, Deutschland; Frankreich, Elsass
R: Ansinge -, Brauchtums - Lied, Kirchen - Fest, Johannis - Tag
M: 2/4
L: 1/16
K: F
 | c4A4 | c4A4
c2c2A4 | c2c2A4
c3cc2d2 | c4A2z
B | c4A2B2 | c4A2
F2 | c2c2c2d2 | c4A2z
B | c3BA2B2 | c3BA2
F2 | F2G2A2B2 | c2cBA2
c2 | c4A2c2 | c4A2
G2 | c2c2c2d2 | c4A2
F2 | c4z2F2 | c4z2
c2 | c2c2c2d2 | c4z2
F2 | c4z2F2 | c4z2
F2 | c2c2c2d2 | c4z4

